frontend/src/assets/figma/downloaded/request-logo.svg

<svg preserveAspectRatio="none" width="100%" height="100%" overflow="visible" style="display: block;" viewBox="0 0 140.327 37.3034" fill="none" xmlns="http://www.w3.org/2000/svg">
<g id="&#208;&#187;&#208;&#190;&#208;&#179;&#208;&#190; 2 " clip-path="url(#clip0_123_1318)">
<path id="Vector" d="M33.9366 27.8881C32.4244 22.4492 29.2058 17.7344 24.8948 14.3726C26.0298 12.9626 27.0164 11.429 27.8388 9.79877C28.7638 7.96417 29.2768 6.39098 29.5294 5.54339C29.9445 4.14448 30.3707 2.26077 30.5238 0C20.3503 0.00950568 10.1767 0.0205956 0 0.0301013C0 12.378 0.00473556 24.7259 0.00473556 37.0721H34.7953C34.8537 36.3576 34.8853 35.632 34.8853 34.9001C34.8853 32.4698 34.5538 30.1187 33.935 27.8881H33.9382H33.9366ZM9.11122 27.8881V9.79877H16.5524C16.4892 9.86372 16.4245 9.9271 16.3582 9.98888C15.4584 10.8713 14.4561 11.6508 13.3764 12.3035V22.5601C14.8491 22.0437 16.2619 21.3925 17.5973 20.6257C20.4245 22.3257 22.7039 24.8573 24.1024 27.8881H9.11122Z" fill="var(--fill-0, white)"/>
<path id="Vector_2" d="M140.327 32.3304C140.31 33.0576 140.27 33.8291 140.199 34.6387C140.121 35.5227 140.013 36.356 139.888 37.1323H130.69C130.785 36.6792 130.87 36.2008 130.941 35.6954C130.982 35.4023 131.017 35.1156 131.044 34.8383C131.044 34.8383 131.194 33.5028 131.194 32.3304C131.194 22.4857 125.756 13.5218 117.533 9.8463V37.1323H108.443V0H116.973C129.047 2.59663 135.846 14.1286 138.065 19.9271C138.323 20.6004 139.083 23.2826 139.71 26.5858C139.95 27.85 140.24 29.3741 140.31 31.3323C140.324 31.7505 140.327 32.0959 140.326 32.332L140.327 32.3304Z" fill="var(--fill-0, white)"/>
<path id="Vector_3" d="M67.5607 0.00316856C66.7604 0.874522 66.1905 1.69359 65.7975 2.32889C65.5118 2.7915 65.084 3.49175 64.6988 4.48509C64.301 5.51171 64.1558 6.31335 64.0169 7.07856C63.6586 9.06525 63.728 10.5925 63.7675 11.1803C63.7912 11.5431 63.8243 11.8393 63.8496 12.0389H57.1851C57.3003 11.0171 57.4266 10.076 57.5608 9.02881H49.2593V37.0753H40.0944V3.70246H40.0976V0H60.6231L67.5607 0.00316856Z" fill="var(--fill-0, white)"/>
<path id="Vector_4" d="M81.6979 0C82.2977 6.4702 86.5803 11.8694 92.4192 14.0621V0.028517H101.541V26.993L101.606 26.9613V35.5639L101.025 35.7683C100.588 35.922 100.143 36.0677 99.6867 36.2024C99.1421 36.3671 98.5975 36.5081 98.0545 36.6333C96.7949 36.9232 95.532 37.1149 94.2771 37.2163C93.6536 37.267 93.0317 37.2971 92.4097 37.3019C92.2456 37.3034 92.0814 37.3034 91.9188 37.3019C91.8178 37.3019 91.6947 37.3019 91.5684 37.2955C89.2732 37.2464 87.0191 36.8931 84.8549 36.2689C84.735 36.2356 84.615 36.2008 84.4887 36.1596C84.1414 36.0582 83.8036 35.9457 83.48 35.8332H83.4769L83.4737 35.8301C83.2748 35.7588 83.0759 35.6875 82.8739 35.613C81.8052 35.2154 80.7824 34.7258 80.0326 34.3408C79.6569 34.1476 79.3459 33.978 79.1281 33.8561C79.0191 33.7959 78.9339 33.7467 78.8739 33.7119C78.8439 33.6945 78.8218 33.6818 78.806 33.6723C78.7982 33.6675 78.7918 33.6644 78.7871 33.6612C78.7855 33.6612 78.7839 33.6596 78.7824 33.658L78.5787 33.5376C76.4825 32.2844 74.8818 30.9172 73.8969 29.9952L73.1186 29.268L73.9852 28.6485C74.814 28.056 75.6679 27.4175 76.5361 26.7284L76.8282 26.4955C77.5038 25.9537 78.1462 25.415 78.7555 24.8827L79.3175 24.3932L79.8858 24.8748C81.2275 26.0139 82.8376 27.0928 84.7523 27.9229L84.9386 28.0021C85.1407 28.0877 85.3459 28.1685 85.5574 28.2493H85.5653L85.6126 28.2683C85.8336 28.3523 86.0609 28.4315 86.2977 28.5091C86.3545 28.5281 86.4019 28.5424 86.4477 28.5582L86.585 28.601L86.5992 28.6042L86.6118 28.6089L86.7507 28.6533C86.8439 28.6818 86.9386 28.7103 87.0333 28.7357L87.1769 28.7753H87.1817L87.1864 28.7784C87.5479 28.8798 87.9109 28.9701 88.2756 29.0462L88.4319 29.0779H88.4334H88.435C89.4784 29.2902 90.5439 29.4169 91.6221 29.447C91.8872 29.4533 92.154 29.4549 92.4224 29.4518V23.6913C81.458 21.1612 73.1644 11.6112 72.473 0H81.6963H81.6979Z" fill="var(--fill-0, white)"/>
</g>
<defs>
<clipPath id="clip0_123_1318">
<rect width="140.327" height="37.3034" fill="white"/>
</clipPath>
</defs>
</svg>

<svg xmlns="http://www.w3.org/2000/svg" fill="none" overflow="visible" preserveAspectRatio="none" style="display:block" viewBox="0 0 140.327 37.303"><g fill="var(--fill-0, white)" clip-path="url(#a)"><path d="M33.937 27.888a25.97 25.97 0 0 0-9.042-13.515 25.9 25.9 0 0 0 4.634-8.83c.416-1.399.842-3.282.995-5.543L0 .03c0 12.348.005 24.696.005 37.042h34.79q.09-1.073.09-2.172c0-2.43-.331-4.781-.95-7.012h.003zm-24.826 0V9.798h7.441a6 6 0 0 1-.194.19c-.9.883-1.902 1.663-2.982 2.316V22.56a25.3 25.3 0 0 0 4.221-1.934 16.6 16.6 0 0 1 6.505 7.262zm131.216 4.442a35 35 0 0 1-.439 4.802h-9.198a22 22 0 0 0 .354-2.294s.15-1.335.15-2.508c0-9.844-5.438-18.808-13.661-22.484v27.286h-9.09V0h8.53c12.074 2.597 18.873 14.129 21.092 19.927.258.673 1.018 3.356 1.645 6.659.24 1.264.53 2.788.6 4.746.014.418.017.764.016 1zM67.56.003c-.8.872-1.37 1.69-1.763 2.326A12.5 12.5 0 0 0 64.7 4.485c-.398 1.027-.543 1.828-.682 2.594a17 17 0 0 0-.25 4.101c.024.363.057.66.083.859h-6.665c.115-1.022.242-1.963.376-3.01H49.26v28.046h-9.165V3.702h.004V0h20.525zM81.698 0c.6 6.47 4.882 11.87 10.721 14.062V.03h9.122v26.964l.065-.032v8.603l-.581.204a28 28 0 0 1-2.97.865 26.3 26.3 0 0 1-6.136.669c-.101 0-.224 0-.35-.007a26.3 26.3 0 0 1-7.08-1.135 21 21 0 0 1-1.009-.327h-.003l-.003-.003q-.298-.105-.6-.217a27 27 0 0 1-2.841-1.272 29 29 0 0 1-1.16-.63l-.067-.039-.019-.01q-.002 0-.005-.004l-.203-.12a27.8 27.8 0 0 1-4.682-3.543l-.778-.727.866-.62a64 64 0 0 0 2.551-1.92l.292-.233a60 60 0 0 0 1.927-1.612l.563-.49.568.482a19.5 19.5 0 0 0 4.866 3.048l.187.08q.302.127.618.246h.008l.048.02q.33.125.685.24c.056.02.104.033.15.05l.137.042.014.003.013.005.139.044q.14.044.282.083l.144.04h.005l.004.002q.543.153 1.09.268l.156.032h.003a18.6 18.6 0 0 0 3.987.374v-5.76C81.458 21.161 73.164 11.611 72.473 0z"/></g><defs><clipPath id="a"><path fill="#fff" d="M0 0h140.327v37.303H0z"/></clipPath></defs></svg>
